X: 236
T: 237. Was betr\"ubst du dich, mein Herze
N: Derived from chor237.krn
C: Johann Sebastian Bach
%%abc-version 2.0
%%abcx-abcm2ps-target-version 5.9.1 (29 Sep 2008)
%%abc-creator hum2abc beta
%%abcx-conversion-date 2019/03/11 17:28:19
%%abc-edited-by Craig Stuart Sapp
%%humdrum-veritas 61839552
%%humdrum-veritas-data 1528285449
%%
%%barnumbers 0
L: 1/4
M: C
%%staves [1 2 3 4]
V: 1 clef=treble
V: 2 clef=treble
V: 3 clef=treble-8
V: 4 clef=bass
K: F
[V:1] dcBA | 
[V:2] G/A//B//A-A/G/- G/^F/ | 
[V:3] B/c//d// _e/d/d-d3//c// | 
[V:4] G,3/^F,/G,D, | 
[V:1] BA/G/^F!fermata!D | 
[V:2] D/G//=F//_ED!fermata!A, | 
[V:3] B/d/c/B/A!fermata!^F | 
[V:4] G,,C,D,!fermata!D,, | 
[V:1] dd_ec | 
[V:2] B,/C/DG,G | 
[V:3] Gg/f/ _e//d//c/- c/B/ | 
[V:4] G,,/A,,/B,,/G,,/ C,/D,/_E, | 
[V:1] dc/B/!fermata!A2 | 
[V:2] A3/G/!fermata!^F2 | 
[V:3] A/d/d!fermata!d2 | 
[V:4] ^F,,G,,!fermata!D,2 | 
[V:1] dcBA | 
[V:2] ^FG/A/- A/G/- G/F/ | 
[V:3] AG/d/dd | 
[V:4] D,E,/^F,/G,D, | 
[V:1] BA/G/^F!fermata!D | 
[V:2] G/=F/=ED!fermata!A, | 
[V:3] d=e/A/A!fermata!^F | 
[V:4] G,^C,D,!fermata!D,, | 
[V:1] dd_ec | 
[V:2] B,/D/=FG3/F/ | 
[V:3] =F/B/ d/c/Bc- | 
[V:4] B,,B,/A,/G,A, | 
[V:1] dc!fermata!B2 | 
[V:2] FF3//_E//!fermata!D2 | 
[V:3] c/B/- B/A/!fermata!F2 | 
[V:4] B,F,!fermata!B,,2 | 
[V:1] d_efd | 
[V:2] FGFG/F/ | 
[V:3] d/c/B-B/A/B- | 
[V:4] B,/A,/G,D,G, | 
[V:1] _edd/c/!fermata!c | 
[V:2] _E/C/FF!fermata!F | 
[V:3] B/A/B-B/A/!fermata!A | 
[V:4] C,D,/_E,/F,!fermata!F,, | 
[V:1] cd_ed | 
[V:2] FFG/^F/G | 
[V:3] AB-B/A/B | 
[V:4] F,/_E,/D,C,G,/F,/ | 
[V:1] c3/B/A!fermata!F | 
[V:2] G/^F/G=F!fermata!C | 
[V:3] ccc!fermata!A | 
[V:4] _E,=E,F,!fermata!F,, | 
[V:1] dABA | 
[V:2] A/G/A-A/G/- G/^F/ | 
[V:3] Addd | 
[V:4] ^F,/E,/F,/D,/G,D, | 
[V:1] Bc!fermata!d2 | 
[V:2] GG!fermata!^F2 | 
[V:3] d_e!fermata!A2 | 
[V:4] G,/=F,/_E,!fermata!D,2 | 
[V:1] ddcB | 
[V:2] GG-G/^F/G- | 
[V:3] Bd_e/d/e | 
[V:4] G,B,,C,^C, | 
[V:1] A3/G/!fermata!G2 |]  
[V:2] G/^F//E//F!fermata!D2 |]  
[V:3] A/d/ d3//c//!fermata!B2 |]  
[V:4] D,D,,!fermata!G,,2 |]  



